X:4
T:The Bewick and the Graeme
Z:Jack Campin, http://www.campin.me.uk/
S:Northumbrian Minstrelsy
M:3/4
L:1/8
K:F Mixolydian
z2|D E  F2   B B |(G```F) (GA) HB>
 B|D E  F2   B2  |(B/c/d) He2  Hc>
 c|d f (ed)  c B |(G```F)  G A  B>
 B|d f (ed) (c`B)| G>  F   F2   |]


